!!!OTL: Brauns Maegdelein.
!!!ARE: Europa, Mitteleuropa, Deutschland
!!!SCT: A0196
!!!TXL: @@GMH
!!!YEM: Copyright 1995, estate of Helmut Schaffrath.
**kern	**text
*M4/2	*
*met(c|)	*
*clefC4	*
*k[b-]	*
*F:ion	*
=1	=1
!LO:TX:a:t=jon. F.	!
1ryy	.
2ryy	.
{2C	Mir
=2	=2
2F	iſt
2F	ein
2G	ſchönß
2A/	braun
=3	=3
2.B-	Mey-
4A	-de-
2G}	-lein,
{2c	ge-
=4	=4
2A/	-fal-
2F	-len
2G	in
2E	mein
=5	=5
1F	ſin.
2r}	.
{2C	Wolt
=6	=6
2F	got,
2F	ich
2G	ſolt
2A/	heint
=7	=7
2.B-	bei
4A	ir
2G}	ſein!
{2c	mein
=8	=8
2A/	traw-
2F	-ren
2G	für
2E	da-
=9	=9
1F	-hin.
2r}	.
{2F	Kein
=10	=10
2G	tag
2A	noch
2B-	nacht
2G	hab
=11	=11
2A	ich
2B-	kein
2c}	rhu,
{2e-	das
=12	=12
2d	ſchafft
2c	jr
2c	ſchön
2B-	ge-
=13	=13
1c	-ſtalt;
2r}	.
{2c	ich
=14	=14
2c	weiß
2c	nit,
*lig	*
4A	wie
4B-	.
*Xlig	*
*lig	*
4c	jm
4A	.
*Xlig	*
=15	=15
2B-	für-
2A	-baß
2G}	thu,
{2B-	mein
=16	=16
2A/	feins-
2F	-lieb
2G	macht
2E	mich
=17	=17
0F/ll}	alt.
==	==
!!!GTL: Liebeslieder
!!!AGN: Romanze, Ballade, Lied
!! Forster V. 1556 No. 15.
!!!ONB: ESAC (Essen Associative Code) Database: ALTDEU
!!!AMT: simple quadruple
!!!AIN: vox
!!!EED: Helmut Schaffrath
!!!EEV: 1.0
!!!RDF**kern: l = terminal long
!!!AMD: Ionian
!!!URL-scan: https://rosdok.uni-rostock.de/mcrviewer/recordIdentifier/rosdok_ppn738218359/iview2/phys_0352.iview2?x=-495.6391625615763&y=1163.8598971774336&scale=0.4629418472063854&rotation=0&layout=singlePageLayout&logicalDiv=log_0009
!!!ENC: Anna Maria Matuszewska
!!!EEV: 2024/07/03
*-	*-
